(Test plate)
(Test Plate GRBL)
(Machine)
(  vendor: Autodesk)
(  model: Generic 3-axis)
(  description: This machine has Y axis on the Table and XZ axis on the Head)
(T1 D=4 CR=0 - ZMIN=-5.305 - flat end mill)
G90 G94
G17
G21
G28 G91 Z0
G90

(Pockets 2)
M0
(MANUAL TOOL CHANGE TO T1)
S12000 M3
G17 G90 G94
G54
G0 X39.976 Y19.321
Z10
G0 Z2
G1 Z0.2 F100
X39.948 Y19.313 Z0.13
X39.881 Y19.291 Z0.1
G3 X41.119 Y15.699 Z0.05 I0.619 J-1.796
X39.881 Y19.291 Z0 I-0.619 J1.796
X41.119 Y15.699 Z-0.05 I0.619 J-1.796
X40.5 Y19.395 Z-0.095 I-0.619 J1.796
G1 X36.924 F200
G3 X36.605 Y19.076 I0 J-0.319
G1 Y17.924
G3 X36.924 Y17.605 I0.319 J0
G1 X41.076
G3 X41.395 Y17.924 I0 J0.319
G1 Y19.076
G3 X41.076 Y19.395 I-0.319 J0
G1 X40.5
G2 X38.809 Y20.522 I0 J1.832
G3 X37.118 Y21.65 I-1.691 J-0.705
G1 X35
G3 X34.35 Y21 I0 J-0.65
G1 Y16
G3 X35 Y15.35 I0.65 J0
G1 X43
G3 X43.65 Y16 I0 J0.65
G1 Y21
G3 X43 Y21.65 I-0.65 J0
G1 X37.118
G2 X35.5 Y22.868 I0 J1.683
G3 X33.644 Y23.676 I-1.262 J-0.363
X32 Y21 I1.356 J-2.676
G1 Y16
G3 X35 Y13 I3 J0
G1 X43
G3 X46 Y16 I0 J3
G1 Y21
G3 X43 Y24 I-3 J0
G1 X35
G3 X33.644 Y23.676 I0 J-3
X32.852 Y21.04 Z-0.111 I0.859 J-1.695 F100
X35.523 Y20.378 Z-0.127 I1.651 J0.941
G1 X39.479 Y22.898 Z-0.152
G2 X41.521 Y19.692 Z-0.184 I1.021 J-1.603
X40.5 Y19.395 Z-0.189 I-1.021 J1.603
G1 X36.924 F200
G3 X36.605 Y19.076 I0 J-0.319
G1 Y17.924
G3 X36.924 Y17.605 I0.319 J0
G1 X41.076
G3 X41.395 Y17.924 I0 J0.319
G1 Y19.076
G3 X41.076 Y19.395 I-0.319 J0
G1 X40.5
G2 X38.809 Y20.522 I0 J1.832
G3 X37.118 Y21.65 I-1.691 J-0.705
G1 X35
G3 X34.35 Y21 I0 J-0.65
G1 Y16
G3 X35 Y15.35 I0.65 J0
G1 X43
G3 X43.65 Y16 I0 J0.65
G1 Y21
G3 X43 Y21.65 I-0.65 J0
G1 X37.118
G2 X35.5 Y22.868 I0 J1.683
G3 X33.644 Y23.676 I-1.262 J-0.363
X32 Y21 I1.356 J-2.676
G1 Y16
G3 X35 Y13 I3 J0
G1 X43
G3 X46 Y16 I0 J3
G1 Y21
G3 X43 Y24 I-3 J0
G1 X35
G3 X33.644 Y23.676 I0 J-3
X32.852 Y21.04 Z-0.206 I0.859 J-1.695 F100
X35.523 Y20.378 Z-0.222 I1.651 J0.941
G1 X39.479 Y22.898 Z-0.247
G2 X41.521 Y19.692 Z-0.278 I1.021 J-1.603
X40.5 Y19.395 Z-0.284 I-1.021 J1.603
G1 X36.924 F200
G3 X36.605 Y19.076 I0 J-0.319
G1 Y17.924
G3 X36.924 Y17.605 I0.319 J0
G1 X41.076
G3 X41.395 Y17.924 I0 J0.319
G1 Y19.076
G3 X41.076 Y19.395 I-0.319 J0
G1 X40.5
G2 X38.809 Y20.522 I0 J1.832
G3 X37.118 Y21.65 I-1.691 J-0.705
G1 X35
G3 X34.35 Y21 I0 J-0.65
G1 Y16
G3 X35 Y15.35 I0.65 J0
G1 X43
G3 X43.65 Y16 I0 J0.65
G1 Y21
G3 X43 Y21.65 I-0.65 J0
G1 X37.118
G2 X35.5 Y22.868 I0 J1.683
G3 X33.644 Y23.676 I-1.262 J-0.363
X32 Y21 I1.356 J-2.676
G1 Y16
G3 X35 Y13 I3 J0
G1 X43
G3 X46 Y16 I0 J3
G1 Y21
G3 X43 Y24 I-3 J0
G1 X35
G3 X33.644 Y23.676 I0 J-3
X32.852 Y21.04 Z-0.3 I0.859 J-1.695 F100
X35.523 Y20.378 Z-0.317 I1.651 J0.941
G1 X39.479 Y22.898 Z-0.342
G2 X41.521 Y19.692 Z-0.373 I1.021 J-1.603
X40.5 Y19.395 Z-0.379 I-1.021 J1.603
G1 X36.924 F200
G3 X36.605 Y19.076 I0 J-0.319
G1 Y17.924
G3 X36.924 Y17.605 I0.319 J0
G1 X41.076
G3 X41.395 Y17.924 I0 J0.319
G1 Y19.076
G3 X41.076 Y19.395 I-0.319 J0
G1 X40.5
G2 X38.809 Y20.522 I0 J1.832
G3 X37.118 Y21.65 I-1.691 J-0.705
G1 X35
G3 X34.35 Y21 I0 J-0.65
G1 Y16
G3 X35 Y15.35 I0.65 J0
G1 X43
G3 X43.65 Y16 I0 J0.65
G1 Y21
G3 X43 Y21.65 I-0.65 J0
G1 X37.118
G2 X35.5 Y22.868 I0 J1.683
G3 X33.644 Y23.676 I-1.262 J-0.363
X32 Y21 I1.356 J-2.676
G1 Y16
G3 X35 Y13 I3 J0
G1 X43
G3 X46 Y16 I0 J3
G1 Y21
G3 X43 Y24 I-3 J0
G1 X35
G3 X33.644 Y23.676 I0 J-3
X32.852 Y21.04 Z-0.395 I0.859 J-1.695 F100
X35.523 Y20.378 Z-0.411 I1.651 J0.941
G1 X39.479 Y22.898 Z-0.436
G2 X41.521 Y19.692 Z-0.468 I1.021 J-1.603
X40.5 Y19.395 Z-0.474 I-1.021 J1.603
G1 X36.924 F200
G3 X36.605 Y19.076 I0 J-0.319
G1 Y17.924
G3 X36.924 Y17.605 I0.319 J0
G1 X41.076
G3 X41.395 Y17.924 I0 J0.319
G1 Y19.076
G3 X41.076 Y19.395 I-0.319 J0
G1 X40.5
G2 X38.809 Y20.522 I0 J1.832
G3 X37.118 Y21.65 I-1.691 J-0.705
G1 X35
G3 X34.35 Y21 I0 J-0.65
G1 Y16
G3 X35 Y15.35 I0.65 J0
G1 X43
G3 X43.65 Y16 I0 J0.65
G1 Y21
G3 X43 Y21.65 I-0.65 J0
G1 X37.118
G2 X35.5 Y22.868 I0 J1.683
G3 X33.644 Y23.676 I-1.262 J-0.363
X32 Y21 I1.356 J-2.676
G1 Y16
G3 X35 Y13 I3 J0
G1 X43
G3 X46 Y16 I0 J3
G1 Y21
G3 X43 Y24 I-3 J0
G1 X35
G3 X33.644 Y23.676 I0 J-3
X32.852 Y21.04 Z-0.49 I0.859 J-1.695 F100
X35.523 Y20.378 Z-0.506 I1.651 J0.941
G1 X39.479 Y22.898 Z-0.531
G2 X41.521 Y19.692 Z-0.563 I1.021 J-1.603
X40.5 Y19.395 Z-0.568 I-1.021 J1.603
G1 X36.924 F200
G3 X36.605 Y19.076 I0 J-0.319
G1 Y17.924
G3 X36.924 Y17.605 I0.319 J0
G1 X41.076
G3 X41.395 Y17.924 I0 J0.319
G1 Y19.076
G3 X41.076 Y19.395 I-0.319 J0
G1 X40.5
G2 X38.809 Y20.522 I0 J1.832
G3 X37.118 Y21.65 I-1.691 J-0.705
G1 X35
G3 X34.35 Y21 I0 J-0.65
G1 Y16
G3 X35 Y15.35 I0.65 J0
G1 X43
G3 X43.65 Y16 I0 J0.65
G1 Y21
G3 X43 Y21.65 I-0.65 J0
G1 X37.118
G2 X35.5 Y22.868 I0 J1.683
G3 X33.644 Y23.676 I-1.262 J-0.363
X32 Y21 I1.356 J-2.676
G1 Y16
G3 X35 Y13 I3 J0
G1 X43
G3 X46 Y16 I0 J3
G1 Y21
G3 X43 Y24 I-3 J0
G1 X35
G3 X33.644 Y23.676 I0 J-3
X32.852 Y21.04 Z-0.585 I0.859 J-1.695 F100
X35.523 Y20.378 Z-0.601 I1.651 J0.941
G1 X39.479 Y22.898 Z-0.626
G2 X41.521 Y19.692 Z-0.657 I1.021 J-1.603
X40.5 Y19.395 Z-0.663 I-1.021 J1.603
G1 X36.924 F200
G3 X36.605 Y19.076 I0 J-0.319
G1 Y17.924
G3 X36.924 Y17.605 I0.319 J0
G1 X41.076
G3 X41.395 Y17.924 I0 J0.319
G1 Y19.076
G3 X41.076 Y19.395 I-0.319 J0
G1 X40.5
G2 X38.809 Y20.522 I0 J1.832
G3 X37.118 Y21.65 I-1.691 J-0.705
G1 X35
G3 X34.35 Y21 I0 J-0.65
G1 Y16
G3 X35 Y15.35 I0.65 J0
G1 X43
G3 X43.65 Y16 I0 J0.65
G1 Y21
G3 X43 Y21.65 I-0.65 J0
G1 X37.118
G2 X35.5 Y22.868 I0 J1.683
G3 X33.644 Y23.676 I-1.262 J-0.363
X32 Y21 I1.356 J-2.676
G1 Y16
G3 X35 Y13 I3 J0
G1 X43
G3 X46 Y16 I0 J3
G1 Y21
G3 X43 Y24 I-3 J0
G1 X35
G3 X33.644 Y23.676 I0 J-3
X32.852 Y21.04 Z-0.679 I0.859 J-1.695 F100
X35.523 Y20.378 Z-0.696 I1.651 J0.941
G1 X39.479 Y22.898 Z-0.72
G2 X41.521 Y19.692 Z-0.752 I1.021 J-1.603
X40.5 Y19.395 Z-0.758 I-1.021 J1.603
G1 X36.924 F200
G3 X36.605 Y19.076 I0 J-0.319
G1 Y17.924
G3 X36.924 Y17.605 I0.319 J0
G1 X41.076
G3 X41.395 Y17.924 I0 J0.319
G1 Y19.076
G3 X41.076 Y19.395 I-0.319 J0
G1 X40.5
G2 X38.809 Y20.522 I0 J1.832
G3 X37.118 Y21.65 I-1.691 J-0.705
G1 X35
G3 X34.35 Y21 I0 J-0.65
G1 Y16
G3 X35 Y15.35 I0.65 J0
G1 X43
G3 X43.65 Y16 I0 J0.65
G1 Y21
G3 X43 Y21.65 I-0.65 J0
G1 X37.118
G2 X35.5 Y22.868 I0 J1.683
G3 X33.644 Y23.676 I-1.262 J-0.363
X32 Y21 I1.356 J-2.676
G1 Y16
G3 X35 Y13 I3 J0
G1 X43
G3 X46 Y16 I0 J3
G1 Y21
G3 X43 Y24 I-3 J0
G1 X35
G3 X33.644 Y23.676 I0 J-3
X32.852 Y21.04 Z-0.774 I0.859 J-1.695 F100
X35.523 Y20.378 Z-0.79 I1.651 J0.941
G1 X39.479 Y22.898 Z-0.815
G2 X41.521 Y19.692 Z-0.847 I1.021 J-1.603
X40.5 Y19.395 Z-0.853 I-1.021 J1.603
G1 X36.924 F200
G3 X36.605 Y19.076 I0 J-0.319
G1 Y17.924
G3 X36.924 Y17.605 I0.319 J0
G1 X41.076
G3 X41.395 Y17.924 I0 J0.319
G1 Y19.076
G3 X41.076 Y19.395 I-0.319 J0
G1 X40.5
G2 X38.809 Y20.522 I0 J1.832
G3 X37.118 Y21.65 I-1.691 J-0.705
G1 X35
G3 X34.35 Y21 I0 J-0.65
G1 Y16
G3 X35 Y15.35 I0.65 J0
G1 X43
G3 X43.65 Y16 I0 J0.65
G1 Y21
G3 X43 Y21.65 I-0.65 J0
G1 X37.118
G2 X35.5 Y22.868 I0 J1.683
G3 X33.644 Y23.676 I-1.262 J-0.363
X32 Y21 I1.356 J-2.676
G1 Y16
G3 X35 Y13 I3 J0
G1 X43
G3 X46 Y16 I0 J3
G1 Y21
G3 X43 Y24 I-3 J0
G1 X35
G3 X33.644 Y23.676 I0 J-3
X32.852 Y21.04 Z-0.869 I0.859 J-1.695 F100
X35.523 Y20.378 Z-0.885 I1.651 J0.941
G1 X39.479 Y22.898 Z-0.91
G2 X41.521 Y19.692 Z-0.942 I1.021 J-1.603
X40.5 Y19.395 Z-0.947 I-1.021 J1.603
G1 X36.924 F200
G3 X36.605 Y19.076 I0 J-0.319
G1 Y17.924
G3 X36.924 Y17.605 I0.319 J0
G1 X41.076
G3 X41.395 Y17.924 I0 J0.319
G1 Y19.076
G3 X41.076 Y19.395 I-0.319 J0
G1 X40.5
G2 X38.809 Y20.522 I0 J1.832
G3 X37.118 Y21.65 I-1.691 J-0.705
G1 X35
G3 X34.35 Y21 I0 J-0.65
G1 Y16
G3 X35 Y15.35 I0.65 J0
G1 X43
G3 X43.65 Y16 I0 J0.65
G1 Y21
G3 X43 Y21.65 I-0.65 J0
G1 X37.118
G2 X35.5 Y22.868 I0 J1.683
G3 X33.644 Y23.676 I-1.262 J-0.363
X32 Y21 I1.356 J-2.676
G1 Y16
G3 X35 Y13 I3 J0
G1 X43
G3 X46 Y16 I0 J3
G1 Y21
G3 X43 Y24 I-3 J0
G1 X35
G3 X33.644 Y23.676 I0 J-3
X32.852 Y21.04 Z-0.964 I0.859 J-1.695 F100
X35.523 Y20.378 Z-0.98 I1.651 J0.941
G1 X39.479 Y22.898 Z-1.005
G2 X41.521 Y19.692 Z-1.036 I1.021 J-1.603
X40.5 Y19.395 Z-1.042 I-1.021 J1.603
G1 X36.924 F200
G3 X36.605 Y19.076 I0 J-0.319
G1 Y17.924
G3 X36.924 Y17.605 I0.319 J0
G1 X41.076
G3 X41.395 Y17.924 I0 J0.319
G1 Y19.076
G3 X41.076 Y19.395 I-0.319 J0
G1 X40.5
G2 X38.809 Y20.522 I0 J1.832
G3 X37.118 Y21.65 I-1.691 J-0.705
G1 X35
G3 X34.35 Y21 I0 J-0.65
G1 Y16
G3 X35 Y15.35 I0.65 J0
G1 X43
G3 X43.65 Y16 I0 J0.65
G1 Y21
G3 X43 Y21.65 I-0.65 J0
G1 X37.118
G2 X35.5 Y22.868 I0 J1.683
G3 X33.644 Y23.676 I-1.262 J-0.363
X32 Y21 I1.356 J-2.676
G1 Y16
G3 X35 Y13 I3 J0
G1 X43
G3 X46 Y16 I0 J3
G1 Y21
G3 X43 Y24 I-3 J0
G1 X35
G3 X33.644 Y23.676 I0 J-3
X32.852 Y21.04 Z-1.058 I0.859 J-1.695 F100
X35.523 Y20.378 Z-1.075 I1.651 J0.941
G1 X39.479 Y22.898 Z-1.099
G2 X41.521 Y19.692 Z-1.131 I1.021 J-1.603
X40.5 Y19.395 Z-1.137 I-1.021 J1.603
G1 X36.924 F200
G3 X36.605 Y19.076 I0 J-0.319
G1 Y17.924
G3 X36.924 Y17.605 I0.319 J0
G1 X41.076
G3 X41.395 Y17.924 I0 J0.319
G1 Y19.076
G3 X41.076 Y19.395 I-0.319 J0
G1 X40.5
G2 X38.809 Y20.522 I0 J1.832
G3 X37.118 Y21.65 I-1.691 J-0.705
G1 X35
G3 X34.35 Y21 I0 J-0.65
G1 Y16
G3 X35 Y15.35 I0.65 J0
G1 X43
G3 X43.65 Y16 I0 J0.65
G1 Y21
G3 X43 Y21.65 I-0.65 J0
G1 X37.118
G2 X35.5 Y22.868 I0 J1.683
G3 X33.644 Y23.676 I-1.262 J-0.363
X32 Y21 I1.356 J-2.676
G1 Y16
G3 X35 Y13 I3 J0
G1 X43
G3 X46 Y16 I0 J3
G1 Y21
G3 X43 Y24 I-3 J0
G1 X35
G3 X33.644 Y23.676 I0 J-3
X32.852 Y21.04 Z-1.153 I0.859 J-1.695 F100
X35.523 Y20.378 Z-1.169 I1.651 J0.941
G1 X39.479 Y22.898 Z-1.194
G2 X41.521 Y19.692 Z-1.226 I1.021 J-1.603
X40.5 Y19.395 Z-1.231 I-1.021 J1.603
G1 X36.924 F200
G3 X36.605 Y19.076 I0 J-0.319
G1 Y17.924
G3 X36.924 Y17.605 I0.319 J0
G1 X41.076
G3 X41.395 Y17.924 I0 J0.319
G1 Y19.076
G3 X41.076 Y19.395 I-0.319 J0
G1 X40.5
G2 X38.809 Y20.522 I0 J1.832
G3 X37.118 Y21.65 I-1.691 J-0.705
G1 X35
G3 X34.35 Y21 I0 J-0.65
G1 Y16
G3 X35 Y15.35 I0.65 J0
G1 X43
G3 X43.65 Y16 I0 J0.65
G1 Y21
G3 X43 Y21.65 I-0.65 J0
G1 X37.118
G2 X35.5 Y22.868 I0 J1.683
G3 X33.644 Y23.676 I-1.262 J-0.363
X32 Y21 I1.356 J-2.676
G1 Y16
G3 X35 Y13 I3 J0
G1 X43
G3 X46 Y16 I0 J3
G1 Y21
G3 X43 Y24 I-3 J0
G1 X35
G3 X33.644 Y23.676 I0 J-3
X32.852 Y21.04 Z-1.248 I0.859 J-1.695 F100
X35.523 Y20.378 Z-1.264 I1.651 J0.941
G1 X39.479 Y22.898 Z-1.289
G2 X41.521 Y19.692 Z-1.32 I1.021 J-1.603
X40.5 Y19.395 Z-1.326 I-1.021 J1.603
G1 X36.924 F200
G3 X36.605 Y19.076 I0 J-0.319
G1 Y17.924
G3 X36.924 Y17.605 I0.319 J0
G1 X41.076
G3 X41.395 Y17.924 I0 J0.319
G1 Y19.076
G3 X41.076 Y19.395 I-0.319 J0
G1 X40.5
G2 X38.809 Y20.522 I0 J1.832
G3 X37.118 Y21.65 I-1.691 J-0.705
G1 X35
G3 X34.35 Y21 I0 J-0.65
G1 Y16
G3 X35 Y15.35 I0.65 J0
G1 X43
G3 X43.65 Y16 I0 J0.65
G1 Y21
G3 X43 Y21.65 I-0.65 J0
G1 X37.118
G2 X35.5 Y22.868 I0 J1.683
G3 X33.644 Y23.676 I-1.262 J-0.363
X32 Y21 I1.356 J-2.676
G1 Y16
G3 X35 Y13 I3 J0
G1 X43
G3 X46 Y16 I0 J3
G1 Y21
G3 X43 Y24 I-3 J0
G1 X35
G3 X33.644 Y23.676 I0 J-3
X32.852 Y21.04 Z-1.342 I0.859 J-1.695 F100
X35.523 Y20.378 Z-1.359 I1.651 J0.941
G1 X39.479 Y22.898 Z-1.384
G2 X41.521 Y19.692 Z-1.415 I1.021 J-1.603
X40.5 Y19.395 Z-1.421 I-1.021 J1.603
G1 X36.924 F200
G3 X36.605 Y19.076 I0 J-0.319
G1 Y17.924
G3 X36.924 Y17.605 I0.319 J0
G1 X41.076
G3 X41.395 Y17.924 I0 J0.319
G1 Y19.076
G3 X41.076 Y19.395 I-0.319 J0
G1 X40.5
G2 X38.809 Y20.522 I0 J1.832
G3 X37.118 Y21.65 I-1.691 J-0.705
G1 X35
G3 X34.35 Y21 I0 J-0.65
G1 Y16
G3 X35 Y15.35 I0.65 J0
G1 X43
G3 X43.65 Y16 I0 J0.65
G1 Y21
G3 X43 Y21.65 I-0.65 J0
G1 X37.118
G2 X35.5 Y22.868 I0 J1.683
G3 X33.644 Y23.676 I-1.262 J-0.363
X32 Y21 I1.356 J-2.676
G1 Y16
G3 X35 Y13 I3 J0
G1 X43
G3 X46 Y16 I0 J3
G1 Y21
G3 X43 Y24 I-3 J0
G1 X35
G3 X33.644 Y23.676 I0 J-3
X32.852 Y21.04 Z-1.437 I0.859 J-1.695 F100
X35.523 Y20.378 Z-1.453 I1.651 J0.941
G1 X39.479 Y22.898 Z-1.478
G2 X41.521 Y19.692 Z-1.51 I1.021 J-1.603
X40.5 Y19.395 Z-1.516 I-1.021 J1.603
G1 X36.924 F200
G3 X36.605 Y19.076 I0 J-0.319
G1 Y17.924
G3 X36.924 Y17.605 I0.319 J0
G1 X41.076
G3 X41.395 Y17.924 I0 J0.319
G1 Y19.076
G3 X41.076 Y19.395 I-0.319 J0
G1 X40.5
G2 X38.809 Y20.522 I0 J1.832
G3 X37.118 Y21.65 I-1.691 J-0.705
G1 X35
G3 X34.35 Y21 I0 J-0.65
G1 Y16
G3 X35 Y15.35 I0.65 J0
G1 X43
G3 X43.65 Y16 I0 J0.65
G1 Y21
G3 X43 Y21.65 I-0.65 J0
G1 X37.118
G2 X35.5 Y22.868 I0 J1.683
G3 X33.644 Y23.676 I-1.262 J-0.363
X32 Y21 I1.356 J-2.676
G1 Y16
G3 X35 Y13 I3 J0
G1 X43
G3 X46 Y16 I0 J3
G1 Y21
G3 X43 Y24 I-3 J0
G1 X35
G3 X33.644 Y23.676 I0 J-3
X32.852 Y21.04 Z-1.532 I0.859 J-1.695 F100
X35.523 Y20.378 Z-1.548 I1.651 J0.941
G1 X39.479 Y22.898 Z-1.573
G2 X41.521 Y19.692 Z-1.605 I1.021 J-1.603
X40.5 Y19.395 Z-1.61 I-1.021 J1.603
G1 X36.924 F200
G3 X36.605 Y19.076 I0 J-0.319
G1 Y17.924
G3 X36.924 Y17.605 I0.319 J0
G1 X41.076
G3 X41.395 Y17.924 I0 J0.319
G1 Y19.076
G3 X41.076 Y19.395 I-0.319 J0
G1 X40.5
G2 X38.809 Y20.522 I0 J1.832
G3 X37.118 Y21.65 I-1.691 J-0.705
G1 X35
G3 X34.35 Y21 I0 J-0.65
G1 Y16
G3 X35 Y15.35 I0.65 J0
G1 X43
G3 X43.65 Y16 I0 J0.65
G1 Y21
G3 X43 Y21.65 I-0.65 J0
G1 X37.118
G2 X35.5 Y22.868 I0 J1.683
G3 X33.644 Y23.676 I-1.262 J-0.363
X32 Y21 I1.356 J-2.676
G1 Y16
G3 X35 Y13 I3 J0
G1 X43
G3 X46 Y16 I0 J3
G1 Y21
G3 X43 Y24 I-3 J0
G1 X35
G3 X33.644 Y23.676 I0 J-3
X32.852 Y21.04 Z-1.627 I0.859 J-1.695 F100
X35.523 Y20.378 Z-1.643 I1.651 J0.941
G1 X39.479 Y22.898 Z-1.668
G2 X41.521 Y19.692 Z-1.699 I1.021 J-1.603
X40.5 Y19.395 Z-1.705 I-1.021 J1.603
G1 X36.924 F200
G3 X36.605 Y19.076 I0 J-0.319
G1 Y17.924
G3 X36.924 Y17.605 I0.319 J0
G1 X41.076
G3 X41.395 Y17.924 I0 J0.319
G1 Y19.076
G3 X41.076 Y19.395 I-0.319 J0
G1 X40.5
G2 X38.809 Y20.522 I0 J1.832
G3 X37.118 Y21.65 I-1.691 J-0.705
G1 X35
G3 X34.35 Y21 I0 J-0.65
G1 Y16
G3 X35 Y15.35 I0.65 J0
G1 X43
G3 X43.65 Y16 I0 J0.65
G1 Y21
G3 X43 Y21.65 I-0.65 J0
G1 X37.118
G2 X35.5 Y22.868 I0 J1.683
G3 X33.644 Y23.676 I-1.262 J-0.363
X32 Y21 I1.356 J-2.676
G1 Y16
G3 X35 Y13 I3 J0
G1 X43
G3 X46 Y16 I0 J3
G1 Y21
G3 X43 Y24 I-3 J0
G1 X35
G3 X33.644 Y23.676 I0 J-3
X32.852 Y21.04 Z-1.722 I0.859 J-1.695 F100
X35.523 Y20.378 Z-1.739 I1.651 J0.941
G1 X39.479 Y22.898 Z-1.766
G2 X41.521 Y19.692 Z-1.799 I1.021 J-1.603
X40.5 Y19.395 Z-1.805 I-1.021 J1.603
G1 X36.924 F200
G3 X36.605 Y19.076 I0 J-0.319
G1 Y17.924
G3 X36.924 Y17.605 I0.319 J0
G1 X41.076
G3 X41.395 Y17.924 I0 J0.319
G1 Y19.076
G3 X41.076 Y19.395 I-0.319 J0
G1 X40.5
G2 X38.809 Y20.522 I0 J1.832
G3 X37.118 Y21.65 I-1.691 J-0.705
G1 X35
G3 X34.35 Y21 I0 J-0.65
G1 Y16
G3 X35 Y15.35 I0.65 J0
G1 X43
G3 X43.65 Y16 I0 J0.65
G1 Y21
G3 X43 Y21.65 I-0.65 J0
G1 X37.118
G2 X35.5 Y22.868 I0 J1.683
G3 X33.644 Y23.676 I-1.262 J-0.363
X32 Y21 I1.356 J-2.676
G1 Y16
G3 X35 Y13 I3 J0
G1 X43
G3 X46 Y16 I0 J3
G1 Y21
G3 X43 Y24 I-3 J0
G1 X35
G3 X33.644 Y23.676 I0 J-3
G1 X33.585 Y23.637 Z-1.776 F100
X33.563 Y23.618 Z-1.705
G0 Z5
X11.446 Y19.224
Z2
G1 Z0.2 F100
X11.438 Y19.252 Z0.13
X11.416 Y19.319 Z0.1
G3 X7.823 Y18.081 Z0.05 I-1.796 J-0.619
X11.416 Y19.319 Z0 I1.796 J0.619
X7.823 Y18.081 Z-0.05 I-1.796 J-0.619
X11.52 Y18.7 Z-0.095 I1.796 J0.619
X10.02 Y18.7 I-0.75 J0 F200
X13.92 Y18.7 I1.95 J0
X7.62 Y18.7 I-3.15 J0
X13.92 Y18.7 I3.15 J0
G2 X14.815 Y20.243 I1.777 J0
G3 X15.178 Y21.989 I-0.591 J1.034
X5.27 Y18.7 I-4.408 J-3.289
X16.27 Y18.7 I5.5 J0
X15.178 Y21.989 I-5.5 J0
X12.761 Y22.529 Z-0.111 I-1.523 J-1.136 F100
G1 X8.726 Y20.376 Z-0.14
G3 X10.514 Y17.024 Z-0.177 I0.894 J-1.676
X11.52 Y18.7 Z-0.189 I-0.894 J1.676
X10.02 Y18.7 I-0.75 J0 F200
X13.92 Y18.7 I1.95 J0
X7.62 Y18.7 I-3.15 J0
X13.92 Y18.7 I3.15 J0
G2 X14.815 Y20.243 I1.777 J0
G3 X15.178 Y21.989 I-0.591 J1.034
X5.27 Y18.7 I-4.408 J-3.289
X16.27 Y18.7 I5.5 J0
X15.178 Y21.989 I-5.5 J0
X12.761 Y22.529 Z-0.206 I-1.523 J-1.136 F100
G1 X8.726 Y20.376 Z-0.234
G3 X10.514 Y17.024 Z-0.271 I0.894 J-1.676
X11.52 Y18.7 Z-0.284 I-0.894 J1.676
X10.02 Y18.7 I-0.75 J0 F200
X13.92 Y18.7 I1.95 J0
X7.62 Y18.7 I-3.15 J0
X13.92 Y18.7 I3.15 J0
G2 X14.815 Y20.243 I1.777 J0
G3 X15.178 Y21.989 I-0.591 J1.034
X5.27 Y18.7 I-4.408 J-3.289
X16.27 Y18.7 I5.5 J0
X15.178 Y21.989 I-5.5 J0
X12.761 Y22.529 Z-0.301 I-1.523 J-1.136 F100
G1 X8.726 Y20.376 Z-0.329
G3 X10.514 Y17.024 Z-0.366 I0.894 J-1.676
X11.52 Y18.7 Z-0.379 I-0.894 J1.676
X10.02 Y18.7 I-0.75 J0 F200
X13.92 Y18.7 I1.95 J0
X7.62 Y18.7 I-3.15 J0
X13.92 Y18.7 I3.15 J0
G2 X14.815 Y20.243 I1.777 J0
G3 X15.178 Y21.989 I-0.591 J1.034
X5.27 Y18.7 I-4.408 J-3.289
X16.27 Y18.7 I5.5 J0
X15.178 Y21.989 I-5.5 J0
X12.761 Y22.529 Z-0.396 I-1.523 J-1.136 F100
G1 X8.726 Y20.376 Z-0.424
G3 X10.514 Y17.024 Z-0.461 I0.894 J-1.676
X11.52 Y18.7 Z-0.474 I-0.894 J1.676
X10.02 Y18.7 I-0.75 J0 F200
X13.92 Y18.7 I1.95 J0
X7.62 Y18.7 I-3.15 J0
X13.92 Y18.7 I3.15 J0
G2 X14.815 Y20.243 I1.777 J0
G3 X15.178 Y21.989 I-0.591 J1.034
X5.27 Y18.7 I-4.408 J-3.289
X16.27 Y18.7 I5.5 J0
X15.178 Y21.989 I-5.5 J0
X12.761 Y22.529 Z-0.49 I-1.523 J-1.136 F100
G1 X8.726 Y20.376 Z-0.519
G3 X10.514 Y17.024 Z-0.556 I0.894 J-1.676
X11.52 Y18.7 Z-0.568 I-0.894 J1.676
X10.02 Y18.7 I-0.75 J0 F200
X13.92 Y18.7 I1.95 J0
X7.62 Y18.7 I-3.15 J0
X13.92 Y18.7 I3.15 J0
G2 X14.815 Y20.243 I1.777 J0
G3 X15.178 Y21.989 I-0.591 J1.034
X5.27 Y18.7 I-4.408 J-3.289
X16.27 Y18.7 I5.5 J0
X15.178 Y21.989 I-5.5 J0
X12.761 Y22.529 Z-0.585 I-1.523 J-1.136 F100
G1 X8.726 Y20.376 Z-0.613
G3 X10.514 Y17.024 Z-0.65 I0.894 J-1.676
X11.52 Y18.7 Z-0.663 I-0.894 J1.676
X10.02 Y18.7 I-0.75 J0 F200
X13.92 Y18.7 I1.95 J0
X7.62 Y18.7 I-3.15 J0
X13.92 Y18.7 I3.15 J0
G2 X14.815 Y20.243 I1.777 J0
G3 X15.178 Y21.989 I-0.591 J1.034
X5.27 Y18.7 I-4.408 J-3.289
X16.27 Y18.7 I5.5 J0
X15.178 Y21.989 I-5.5 J0
X12.761 Y22.529 Z-0.68 I-1.523 J-1.136 F100
G1 X8.726 Y20.376 Z-0.708
G3 X10.514 Y17.024 Z-0.745 I0.894 J-1.676
X11.52 Y18.7 Z-0.758 I-0.894 J1.676
X10.02 Y18.7 I-0.75 J0 F200
X13.92 Y18.7 I1.95 J0
X7.62 Y18.7 I-3.15 J0
X13.92 Y18.7 I3.15 J0
G2 X14.815 Y20.243 I1.777 J0
G3 X15.178 Y21.989 I-0.591 J1.034
X5.27 Y18.7 I-4.408 J-3.289
X16.27 Y18.7 I5.5 J0
X15.178 Y21.989 I-5.5 J0
X12.761 Y22.529 Z-0.774 I-1.523 J-1.136 F100
G1 X8.726 Y20.376 Z-0.803
G3 X10.514 Y17.024 Z-0.84 I0.894 J-1.676
X11.52 Y18.7 Z-0.853 I-0.894 J1.676
X10.02 Y18.7 I-0.75 J0 F200
X13.92 Y18.7 I1.95 J0
X7.62 Y18.7 I-3.15 J0
X13.92 Y18.7 I3.15 J0
G2 X14.815 Y20.243 I1.777 J0
G3 X15.178 Y21.989 I-0.591 J1.034
X5.27 Y18.7 I-4.408 J-3.289
X16.27 Y18.7 I5.5 J0
X15.178 Y21.989 I-5.5 J0
X12.761 Y22.529 Z-0.869 I-1.523 J-1.136 F100
G1 X8.726 Y20.376 Z-0.898
G3 X10.514 Y17.024 Z-0.935 I0.894 J-1.676
X11.52 Y18.7 Z-0.947 I-0.894 J1.676
X10.02 Y18.7 I-0.75 J0 F200
X13.92 Y18.7 I1.95 J0
X7.62 Y18.7 I-3.15 J0
X13.92 Y18.7 I3.15 J0
G2 X14.815 Y20.243 I1.777 J0
G3 X15.178 Y21.989 I-0.591 J1.034
X5.27 Y18.7 I-4.408 J-3.289
X16.27 Y18.7 I5.5 J0
X15.178 Y21.989 I-5.5 J0
X12.761 Y22.529 Z-0.964 I-1.523 J-1.136 F100
G1 X8.726 Y20.376 Z-0.992
G3 X10.514 Y17.024 Z-1.029 I0.894 J-1.676
X11.52 Y18.7 Z-1.042 I-0.894 J1.676
X10.02 Y18.7 I-0.75 J0 F200
X13.92 Y18.7 I1.95 J0
X7.62 Y18.7 I-3.15 J0
X13.92 Y18.7 I3.15 J0
G2 X14.815 Y20.243 I1.777 J0
G3 X15.178 Y21.989 I-0.591 J1.034
X5.27 Y18.7 I-4.408 J-3.289
X16.27 Y18.7 I5.5 J0
X15.178 Y21.989 I-5.5 J0
X12.761 Y22.529 Z-1.059 I-1.523 J-1.136 F100
G1 X8.726 Y20.376 Z-1.087
G3 X10.514 Y17.024 Z-1.124 I0.894 J-1.676
X11.52 Y18.7 Z-1.137 I-0.894 J1.676
X10.02 Y18.7 I-0.75 J0 F200
X13.92 Y18.7 I1.95 J0
X7.62 Y18.7 I-3.15 J0
X13.92 Y18.7 I3.15 J0
G2 X14.815 Y20.243 I1.777 J0
G3 X15.178 Y21.989 I-0.591 J1.034
X5.27 Y18.7 I-4.408 J-3.289
X16.27 Y18.7 I5.5 J0
X15.178 Y21.989 I-5.5 J0
X12.761 Y22.529 Z-1.153 I-1.523 J-1.136 F100
G1 X8.726 Y20.376 Z-1.182
G3 X10.514 Y17.024 Z-1.219 I0.894 J-1.676
X11.52 Y18.7 Z-1.231 I-0.894 J1.676
X10.02 Y18.7 I-0.75 J0 F200
X13.92 Y18.7 I1.95 J0
X7.62 Y18.7 I-3.15 J0
X13.92 Y18.7 I3.15 J0
G2 X14.815 Y20.243 I1.777 J0
G3 X15.178 Y21.989 I-0.591 J1.034
X5.27 Y18.7 I-4.408 J-3.289
X16.27 Y18.7 I5.5 J0
X15.178 Y21.989 I-5.5 J0
X12.761 Y22.529 Z-1.248 I-1.523 J-1.136 F100
G1 X8.726 Y20.376 Z-1.276
G3 X10.514 Y17.024 Z-1.313 I0.894 J-1.676
X11.52 Y18.7 Z-1.326 I-0.894 J1.676
X10.02 Y18.7 I-0.75 J0 F200
X13.92 Y18.7 I1.95 J0
X7.62 Y18.7 I-3.15 J0
X13.92 Y18.7 I3.15 J0
G2 X14.815 Y20.243 I1.777 J0
G3 X15.178 Y21.989 I-0.591 J1.034
X5.27 Y18.7 I-4.408 J-3.289
X16.27 Y18.7 I5.5 J0
X15.178 Y21.989 I-5.5 J0
X12.761 Y22.529 Z-1.343 I-1.523 J-1.136 F100
G1 X8.726 Y20.376 Z-1.371
G3 X10.514 Y17.024 Z-1.408 I0.894 J-1.676
X11.52 Y18.7 Z-1.421 I-0.894 J1.676
X10.02 Y18.7 I-0.75 J0 F200
X13.92 Y18.7 I1.95 J0
X7.62 Y18.7 I-3.15 J0
X13.92 Y18.7 I3.15 J0
G2 X14.815 Y20.243 I1.777 J0
G3 X15.178 Y21.989 I-0.591 J1.034
X5.27 Y18.7 I-4.408 J-3.289
X16.27 Y18.7 I5.5 J0
X15.178 Y21.989 I-5.5 J0
X12.761 Y22.529 Z-1.438 I-1.523 J-1.136 F100
G1 X8.726 Y20.376 Z-1.466
G3 X10.514 Y17.024 Z-1.503 I0.894 J-1.676
X11.52 Y18.7 Z-1.516 I-0.894 J1.676
X10.02 Y18.7 I-0.75 J0 F200
X13.92 Y18.7 I1.95 J0
X7.62 Y18.7 I-3.15 J0
X13.92 Y18.7 I3.15 J0
G2 X14.815 Y20.243 I1.777 J0
G3 X15.178 Y21.989 I-0.591 J1.034
X5.27 Y18.7 I-4.408 J-3.289
X16.27 Y18.7 I5.5 J0
X15.178 Y21.989 I-5.5 J0
X12.761 Y22.529 Z-1.532 I-1.523 J-1.136 F100
G1 X8.726 Y20.376 Z-1.561
G3 X10.514 Y17.024 Z-1.598 I0.894 J-1.676
X11.52 Y18.7 Z-1.61 I-0.894 J1.676
X10.02 Y18.7 I-0.75 J0 F200
X13.92 Y18.7 I1.95 J0
X7.62 Y18.7 I-3.15 J0
X13.92 Y18.7 I3.15 J0
G2 X14.815 Y20.243 I1.777 J0
G3 X15.178 Y21.989 I-0.591 J1.034
X5.27 Y18.7 I-4.408 J-3.289
X16.27 Y18.7 I5.5 J0
X15.178 Y21.989 I-5.5 J0
X12.761 Y22.529 Z-1.627 I-1.523 J-1.136 F100
G1 X8.726 Y20.376 Z-1.655
G3 X10.514 Y17.024 Z-1.692 I0.894 J-1.676
X11.52 Y18.7 Z-1.705 I-0.894 J1.676
X10.02 Y18.7 I-0.75 J0 F200
X13.92 Y18.7 I1.95 J0
X7.62 Y18.7 I-3.15 J0
X13.92 Y18.7 I3.15 J0
G2 X14.815 Y20.243 I1.777 J0
G3 X15.178 Y21.989 I-0.591 J1.034
X5.27 Y18.7 I-4.408 J-3.289
X16.27 Y18.7 I5.5 J0
X15.178 Y21.989 I-5.5 J0
X12.761 Y22.529 Z-1.723 I-1.523 J-1.136 F100
G1 X8.726 Y20.376 Z-1.753
G3 X10.514 Y17.024 Z-1.792 I0.894 J-1.676
X11.52 Y18.7 Z-1.805 I-0.894 J1.676
X10.02 Y18.7 I-0.75 J0 F200
X13.92 Y18.7 I1.95 J0
X7.62 Y18.7 I-3.15 J0
X13.92 Y18.7 I3.15 J0
G2 X14.815 Y20.243 I1.777 J0
G3 X15.178 Y21.989 I-0.591 J1.034
X5.27 Y18.7 I-4.408 J-3.289
X16.27 Y18.7 I5.5 J0
X15.178 Y21.989 I-5.5 J0
G1 X15.13 Y22.04 Z-1.776 F100
X15.107 Y22.058 Z-1.705
G0 Z10

(Holes 3)
G0 Z15
X24.5 Y27.6
Z1.995
G1 Z0.395 F100
G18 G2 X24.9 Z-0.005 I0.4 K0
G1 X25.1
G17 G3 X25.5 Y28 I0 J0.4
X22.5 Y28 Z-0.127 I-1.5 J0 F200
X25.5 Y28 Z-0.249 I1.5 J0
X22.5 Y28 Z-0.372 I-1.5 J0
X25.5 Y28 Z-0.494 I1.5 J0
X22.5 Y28 Z-0.616 I-1.5 J0
X25.5 Y28 Z-0.738 I1.5 J0
X22.5 Y28 Z-0.861 I-1.5 J0
X25.5 Y28 Z-0.983 I1.5 J0
X22.5 Y28 Z-1.105 I-1.5 J0
X25.5 Y28 Z-1.227 I1.5 J0
X22.5 Y28 Z-1.349 I-1.5 J0
X25.5 Y28 Z-1.472 I1.5 J0
X22.5 Y28 Z-1.594 I-1.5 J0
X25.5 Y28 Z-1.716 I1.5 J0
X22.5 Y28 Z-1.838 I-1.5 J0
X25.5 Y28 Z-1.961 I1.5 J0
X22.5 Y28 Z-2.083 I-1.5 J0
X25.5 Y28 Z-2.205 I1.5 J0
X22.5 Y28 Z-2.327 I-1.5 J0
X25.5 Y28 Z-2.449 I1.5 J0
X22.5 Y28 Z-2.572 I-1.5 J0
X25.5 Y28 Z-2.694 I1.5 J0
X22.5 Y28 Z-2.816 I-1.5 J0
X25.5 Y28 Z-2.938 I1.5 J0
X22.5 Y28 Z-3.061 I-1.5 J0
X25.5 Y28 Z-3.183 I1.5 J0
X22.5 Y28 Z-3.305 I-1.5 J0
X25.5 Y28 Z-3.427 I1.5 J0
X22.5 Y28 Z-3.549 I-1.5 J0
X25.5 Y28 Z-3.672 I1.5 J0
X22.5 Y28 Z-3.794 I-1.5 J0
X25.5 Y28 Z-3.916 I1.5 J0
X22.5 Y28 Z-4.038 I-1.5 J0
X25.5 Y28 Z-4.161 I1.5 J0
X22.5 Y28 Z-4.283 I-1.5 J0
X25.5 Y28 Z-4.405 I1.5 J0
X22.5 Y28 Z-4.527 I-1.5 J0
X25.5 Y28 Z-4.649 I1.5 J0
X22.5 Y28 Z-4.772 I-1.5 J0
X25.5 Y28 Z-4.894 I1.5 J0
X22.5 Y28 Z-5.016 I-1.5 J0
X25.5 Y28 Z-5.138 I1.5 J0
X22.5 Y28 Z-5.261 I-1.5 J0
X23.376 Y26.636 Z-5.305 I1.5 J0
X24.624 Y29.364 I0.624 J1.364
X23.376 Y26.636 I-0.624 J-1.364
X23.906 Y26.833 I0.166 J0.364 F100
G1 X23.989 Y27.015
X24.022 Y27.086 Z-5.297
X24.053 Y27.154 Z-5.275
X24.082 Y27.217 Z-5.238
X24.107 Y27.272 Z-5.188
X24.128 Y27.318 Z-5.127
X24.143 Y27.351 Z-5.058
X24.153 Y27.372 Z-4.983
X24.156 Y27.379 Z-4.905
G0 Z5
X24 Y18.3
Z1.995
G1 Z0.395 F100
G18 G2 X24.4 Z-0.005 I0.4 K0
G1 X24.6
G17 G3 X25 Y18.7 I0 J0.4
X23 Y18.7 Z-0.11 I-1 J0 F200
X25 Y18.7 Z-0.215 I1 J0
X23 Y18.7 Z-0.319 I-1 J0
X25 Y18.7 Z-0.424 I1 J0
X23 Y18.7 Z-0.529 I-1 J0
X25 Y18.7 Z-0.634 I1 J0
X23 Y18.7 Z-0.738 I-1 J0
X25 Y18.7 Z-0.843 I1 J0
X23 Y18.7 Z-0.948 I-1 J0
X25 Y18.7 Z-1.053 I1 J0
X23 Y18.7 Z-1.157 I-1 J0
X25 Y18.7 Z-1.262 I1 J0
X23 Y18.7 Z-1.367 I-1 J0
X25 Y18.7 Z-1.472 I1 J0
X23 Y18.7 Z-1.576 I-1 J0
X25 Y18.7 Z-1.681 I1 J0
X23 Y18.7 Z-1.786 I-1 J0
X25 Y18.7 Z-1.891 I1 J0
X23 Y18.7 Z-1.995 I-1 J0
X25 Y18.7 Z-2.1 I1 J0
X23 Y18.7 Z-2.205 I-1 J0
X25 Y18.7 Z-2.31 I1 J0
X23 Y18.7 Z-2.415 I-1 J0
X25 Y18.7 Z-2.519 I1 J0
X23 Y18.7 Z-2.624 I-1 J0
X25 Y18.7 Z-2.729 I1 J0
X23 Y18.7 Z-2.834 I-1 J0
X25 Y18.7 Z-2.938 I1 J0
X23 Y18.7 Z-3.043 I-1 J0
X25 Y18.7 Z-3.148 I1 J0
X23 Y18.7 Z-3.253 I-1 J0
X25 Y18.7 Z-3.357 I1 J0
X23 Y18.7 Z-3.462 I-1 J0
X25 Y18.7 Z-3.567 I1 J0
X23 Y18.7 Z-3.672 I-1 J0
X25 Y18.7 Z-3.776 I1 J0
X23 Y18.7 Z-3.881 I-1 J0
X25 Y18.7 Z-3.986 I1 J0
X23 Y18.7 Z-4.091 I-1 J0
X25 Y18.7 Z-4.195 I1 J0
X23 Y18.7 Z-4.3 I-1 J0
X25 Y18.7 Z-4.405 I1 J0
X23 Y18.7 Z-4.51 I-1 J0
X25 Y18.7 Z-4.615 I1 J0
X23 Y18.7 Z-4.719 I-1 J0
X25 Y18.7 Z-4.824 I1 J0
X23 Y18.7 Z-4.929 I-1 J0
X25 Y18.7 Z-5.034 I1 J0
X23 Y18.7 Z-5.138 I-1 J0
X25 Y18.7 Z-5.243 I1 J0
X23.719 Y19.66 Z-5.305 I-1 J0
X24.281 Y17.74 I0.281 J-0.96
X23.719 Y19.66 I-0.281 J0.96
X23.447 Y19.163 I0.112 J-0.384 F100
G1 X23.504 Y18.971
X23.526 Y18.897 Z-5.297
X23.547 Y18.825 Z-5.275
X23.566 Y18.758 Z-5.238
X23.583 Y18.7 Z-5.188
X23.597 Y18.652 Z-5.127
X23.608 Y18.617 Z-5.058
X23.614 Y18.595 Z-4.983
X23.616 Y18.588 Z-4.905
G0 Z5
X23.65 Y8.75
Z1.995
G1 Z0.395 F100
G18 G2 X24.05 Z-0.005 I0.4 K0
G1 X24.25
G17 G3 X24.5 Y9 I0 J0.25
X23.5 Y9 Z-0.092 I-0.5 J0 F200
X24.5 Y9 Z-0.18 I0.5 J0
X23.5 Y9 Z-0.267 I-0.5 J0
X24.5 Y9 Z-0.354 I0.5 J0
X23.5 Y9 Z-0.442 I-0.5 J0
X24.5 Y9 Z-0.529 I0.5 J0
X23.5 Y9 Z-0.616 I-0.5 J0
X24.5 Y9 Z-0.703 I0.5 J0
X23.5 Y9 Z-0.791 I-0.5 J0
X24.5 Y9 Z-0.878 I0.5 J0
X23.5 Y9 Z-0.965 I-0.5 J0
X24.5 Y9 Z-1.053 I0.5 J0
X23.5 Y9 Z-1.14 I-0.5 J0
X24.5 Y9 Z-1.227 I0.5 J0
X23.5 Y9 Z-1.315 I-0.5 J0
X24.5 Y9 Z-1.402 I0.5 J0
X23.5 Y9 Z-1.489 I-0.5 J0
X24.5 Y9 Z-1.576 I0.5 J0
X23.5 Y9 Z-1.664 I-0.5 J0
X24.5 Y9 Z-1.751 I0.5 J0
X23.5 Y9 Z-1.838 I-0.5 J0
X24.5 Y9 Z-1.926 I0.5 J0
X23.5 Y9 Z-2.013 I-0.5 J0
X24.5 Y9 Z-2.1 I0.5 J0
X23.5 Y9 Z-2.188 I-0.5 J0
X24.5 Y9 Z-2.275 I0.5 J0
X23.5 Y9 Z-2.362 I-0.5 J0
X24.5 Y9 Z-2.449 I0.5 J0
X23.5 Y9 Z-2.537 I-0.5 J0
X24.5 Y9 Z-2.624 I0.5 J0
X23.5 Y9 Z-2.711 I-0.5 J0
X24.5 Y9 Z-2.799 I0.5 J0
X23.5 Y9 Z-2.886 I-0.5 J0
X24.5 Y9 Z-2.973 I0.5 J0
X23.5 Y9 Z-3.061 I-0.5 J0
X24.5 Y9 Z-3.148 I0.5 J0
X23.5 Y9 Z-3.235 I-0.5 J0
X24.5 Y9 Z-3.322 I0.5 J0
X23.5 Y9 Z-3.41 I-0.5 J0
X24.5 Y9 Z-3.497 I0.5 J0
X23.5 Y9 Z-3.584 I-0.5 J0
X24.5 Y9 Z-3.672 I0.5 J0
X23.5 Y9 Z-3.759 I-0.5 J0
X24.5 Y9 Z-3.846 I0.5 J0
X23.5 Y9 Z-3.934 I-0.5 J0
X24.5 Y9 Z-4.021 I0.5 J0
X23.5 Y9 Z-4.108 I-0.5 J0
X24.5 Y9 Z-4.195 I0.5 J0
X23.5 Y9 Z-4.283 I-0.5 J0
X24.5 Y9 Z-4.37 I0.5 J0
X23.5 Y9 Z-4.457 I-0.5 J0
X24.5 Y9 Z-4.545 I0.5 J0
X23.5 Y9 Z-4.632 I-0.5 J0
X24.5 Y9 Z-4.719 I0.5 J0
X23.5 Y9 Z-4.807 I-0.5 J0
X24.5 Y9 Z-4.894 I0.5 J0
X23.5 Y9 Z-4.981 I-0.5 J0
X24.5 Y9 Z-5.069 I0.5 J0
X23.5 Y9 Z-5.156 I-0.5 J0
X24.5 Y9 Z-5.243 I0.5 J0
X23.695 Y9.396 Z-5.305 I-0.5 J0
X24.305 Y8.604 I0.305 J-0.396
X23.695 Y9.396 I-0.305 J0.396
X23.649 Y9.046 I0.153 J-0.198 F100
G1 X23.771 Y8.887
X23.819 Y8.825 Z-5.297
X23.865 Y8.766 Z-5.275
X23.907 Y8.711 Z-5.238
X23.944 Y8.663 Z-5.188
X23.974 Y8.624 Z-5.127
X23.997 Y8.594 Z-5.058
X24.011 Y8.576 Z-4.983
X24.015 Y8.57 Z-4.905
G0 Z15

G28 G91 Z0
G90
G28 G91 X0 Y0
G90
M5
M30
